/* XPM */
static char * close_active_xpm[] = {
"29 29 3 1",
" 	c None",
".	c #4BAE55",
"+	c #050806",
".............................",
".+++++++++++++++++++++++++++.",
".+++++++++++++++++++++++++++.",
".+++++++++++++++++++++++++++.",
".+++++++++++++++++++++++++++.",
".+++++++++++++++++++++++++++.",
".+++++++++++++++++++++++++++.",
".+++++++++++++++++++++++++++.",
".+++++++..++++++++++.+++++++.",
".+++++++...++++++++.++++++++.",
".++++++++...++++++.+++++++++.",
".+++++++++...++++.++++++++++.",
".++++++++++...++.+++++++++++.",
".+++++++++++....++++++++++++.",
".++++++++++++...++++++++++++.",
".++++++++++++....+++++++++++.",
".+++++++++++.++...++++++++++.",
".++++++++++.++++...+++++++++.",
".+++++++++.++++++...++++++++.",
".++++++++.++++++++...+++++++.",
".+++++++.++++++++++..+++++++.",
".+++++++++++++++++++++++++++.",
".+++++++++++++++++++++++++++.",
".+++++++++++++++++++++++++++.",
".+++++++++++++++++++++++++++.",
".+++++++++++++++++++++++++++.",
".+++++++++++++++++++++++++++.",
".+++++++++++++++++++++++++++.",
"............................."};
