/* XPM */
static char * close_pressed_xpm[] = {
"29 29 3 1",
" 	c None",
".	c @foreground@",
"+	c @secondaryText@",
".............................",
".+++++++++++++++++++++++++++.",
".+++++++++++++++++++++++++++.",
".+++++++++++++++++++++++++++.",
".+++++++++++++++++++++++++++.",
".+++++++++++++++++++++++++++.",
".+++++++++++++++++++++++++++.",
".+++++++++++++++++++++++++++.",
".+++++++..++++++++++.+++++++.",
".+++++++...++++++++.++++++++.",
".++++++++...++++++.+++++++++.",
".+++++++++...++++.++++++++++.",
".++++++++++...++.+++++++++++.",
".+++++++++++....++++++++++++.",
".++++++++++++...++++++++++++.",
".++++++++++++....+++++++++++.",
".+++++++++++.++...++++++++++.",
".++++++++++.++++...+++++++++.",
".+++++++++.++++++...++++++++.",
".++++++++.++++++++...+++++++.",
".+++++++.++++++++++..+++++++.",
".+++++++++++++++++++++++++++.",
".+++++++++++++++++++++++++++.",
".+++++++++++++++++++++++++++.",
".+++++++++++++++++++++++++++.",
".+++++++++++++++++++++++++++.",
".+++++++++++++++++++++++++++.",
".+++++++++++++++++++++++++++.",
"............................."};
