/* XPM */
static char * close_prelight_xpm[] = {
"29 29 3 1",
" 	c None",
".	c #D99B32",
"+	c #080705",
".............................",
".+++++++++++++++++++++++++++.",
".+++++++++++++++++++++++++++.",
".+++++++++++++++++++++++++++.",
".+++++++++++++++++++++++++++.",
".+++++++++++++++++++++++++++.",
".+++++++++++++++++++++++++++.",
".+++++++++++++++++++++++++++.",
".+++++++..++++++++++.+++++++.",
".+++++++...++++++++.++++++++.",
".++++++++...++++++.+++++++++.",
".+++++++++...++++.++++++++++.",
".++++++++++...++.+++++++++++.",
".+++++++++++....++++++++++++.",
".++++++++++++...++++++++++++.",
".++++++++++++....+++++++++++.",
".+++++++++++.++...++++++++++.",
".++++++++++.++++...+++++++++.",
".+++++++++.++++++...++++++++.",
".++++++++.++++++++...+++++++.",
".+++++++.++++++++++..+++++++.",
".+++++++++++++++++++++++++++.",
".+++++++++++++++++++++++++++.",
".+++++++++++++++++++++++++++.",
".+++++++++++++++++++++++++++.",
".+++++++++++++++++++++++++++.",
".+++++++++++++++++++++++++++.",
".+++++++++++++++++++++++++++.",
"............................."};
