/* XPM */
static char * maximize_active_xpm[] = {
"29 29 3 1",
" 	c None",
".	c @foreground@",
"+	c @background@",
".............................",
".+++++++++++++++++++++++++++.",
".+++++++++++++++++++++++++++.",
".+++++++++++++++++++++++++++.",
".+++++++++++++++++++++++++++.",
".+++++++++++++++++++++++++++.",
".+++++++++++++++++++++++++++.",
".+++++++++++++++++++++++++++.",
".+++++++.............+++++++.",
".+++++++.............+++++++.",
".+++++++.............+++++++.",
".+++++++.+++++++++++.+++++++.",
".+++++++.+++++++++++.+++++++.",
".+++++++.+++++++++++.+++++++.",
".+++++++.+++++++++++.+++++++.",
".+++++++.+++++++++++.+++++++.",
".+++++++.+++++++++++.+++++++.",
".+++++++.+++++++++++.+++++++.",
".+++++++.+++++++++++.+++++++.",
".+++++++.+++++++++++.+++++++.",
".+++++++.............+++++++.",
".+++++++++++++++++++++++++++.",
".+++++++++++++++++++++++++++.",
".+++++++++++++++++++++++++++.",
".+++++++++++++++++++++++++++.",
".+++++++++++++++++++++++++++.",
".+++++++++++++++++++++++++++.",
".+++++++++++++++++++++++++++.",
"............................."};
