/* XPM */
static char * maximize_toggled_pressed_xpm[] = {
"29 29 3 1",
" 	c None",
".	c #4BAE55",
"+	c #286731",
".............................",
".+++++++++++++++++++++++++++.",
".+++++++++++++++++++++++++++.",
".+++++++++++++++++++++++++++.",
".+++++++++++++++++++++++++++.",
".+++++++++++++++++++++++++++.",
".+++++++++.............+++++.",
".+++++++++.............+++++.",
".+++++++++.............+++++.",
".+++++++++.+++++++++++.+++++.",
".+++++.............+++.+++++.",
".+++++.............+++.+++++.",
".+++++.............+++.+++++.",
".+++++.+++++++++++.+++.+++++.",
".+++++.+++++++++++.+++.+++++.",
".+++++.+++++++++++.+++.+++++.",
".+++++.+++++++++++.+++.+++++.",
".+++++.+++++++++++.+++.+++++.",
".+++++.+++++++++++.....+++++.",
".+++++.+++++++++++.+++++++++.",
".+++++.+++++++++++.+++++++++.",
".+++++.+++++++++++.+++++++++.",
".+++++.............+++++++++.",
".+++++++++++++++++++++++++++.",
".+++++++++++++++++++++++++++.",
".+++++++++++++++++++++++++++.",
".+++++++++++++++++++++++++++.",
".+++++++++++++++++++++++++++.",
"............................."};
