/* XPM */
static char * maximize_toggled_active_xpm[] = {
"29 29 3 1",
" 	c None",
".	c @foreground@",
"+	c @background@",
".............................",
".+++++++++++++++++++++++++++.",
".+++++++++++++++++++++++++++.",
".+++++++++++++++++++++++++++.",
".+++++++++++++++++++++++++++.",
".+++++++++++++++++++++++++++.",
".+++++++++.............+++++.",
".+++++++++.............+++++.",
".+++++++++.............+++++.",
".+++++++++.+++++++++++.+++++.",
".+++++.............+++.+++++.",
".+++++.............+++.+++++.",
".+++++.............+++.+++++.",
".+++++.+++++++++++.+++.+++++.",
".+++++.+++++++++++.+++.+++++.",
".+++++.+++++++++++.+++.+++++.",
".+++++.+++++++++++.+++.+++++.",
".+++++.+++++++++++.+++.+++++.",
".+++++.+++++++++++.....+++++.",
".+++++.+++++++++++.+++++++++.",
".+++++.+++++++++++.+++++++++.",
".+++++.+++++++++++.+++++++++.",
".+++++.............+++++++++.",
".+++++++++++++++++++++++++++.",
".+++++++++++++++++++++++++++.",
".+++++++++++++++++++++++++++.",
".+++++++++++++++++++++++++++.",
".+++++++++++++++++++++++++++.",
"............................."};
